X: 12991
T: Fife Hunt, The
R: reel
M: 4/4
K: Cmajor
f|ecc2|GEE2|Dd dc|d2df|ecc2|GEE2|Cc cB|c3:|
|:f|ec gc|ac gc|Dd dc|d2df|ec gc|ac gc|Gc cB|c3:|

